X: 26916
T: Miser's Pocket, The
R: reel
M: 4/4
K: Amajor
"A"eA ((3AAA) cd ec|"Bm"dB ((3BBB) ae fd|"A"eA AA cd ec|"Bm"df "E"ed "A"cA A2:|
|:a2>e2 fc BA|"Bm"Bb ba "E"ge fg|1 "D"af "A7"ge "D"fd "A"ec|
"D"df "E"ed "A"cA A2:|2 "D"af "A7"ge "D"af "A"ec|"D"df "E"ed "A"ce af||

